X: 1596
T: Slipper Hornpipe, The
R:hornpipe
N:"Collected by Dillon"
B:O'Neill's 1596
Z:Transcribed by Michael Hogan
M:C|
L:1/8
K:D
(3ABc | d>f (3edc d>AB>G | F>dE>d D2 d2 |
 c>eA>d c>de>f | g>ef>d (3cBA B>c |
d>f (3edc d>AB>G | F>dE>d D2 d2 |
(3cBA B>c d>fe>c | d2 d>d d2 :|
|: e>c | A>ce>c A>ce>c | A>df>d A>df>d |
B>ge>d c>de>f | g>ef>d (3cBA B>c |
d>f (3edc d>AB>G | F>dE>d D2 d2 |
(3cBA B>c d>fe>c | d2 d>d d2 :||


